templates/main/source/images/духовка.svg

<?xml version="1.0" encoding="utf-8"?>
<svg width="25px" height="21px" viewBox="0 0 25 21" version="1.1" xmlns:xlink="http://www.w3.org/1999/xlink" xmlns="http://www.w3.org/2000/svg">
  <desc>Created with Lunacy</desc>
  <defs>
    <filter filterUnits="userSpaceOnUse" color-interpolation-filters="sRGB" id="filter_1">
      <feFlood flood-opacity="0" result="BackgroundImageFix" />
      <feColorMatrix in="SourceAlpha" type="matrix" values="0 0 0 0 0 0 0 0 0 0 0 0 0 0 0 0 0 0 127 0" />
      <feOffset dx="0" dy="1" />
      <feGaussianBlur stdDeviation="1.5" />
      <feColorMatrix type="matrix" values="0 0 0 0 0.7294118 0 0 0 0 0.07058824 0 0 0 0 0.07058824 0 0 0 0.2509804 0" />
      <feBlend mode="normal" in2="BackgroundImageFix" result="effect0_dropShadow" />
      <feBlend mode="normal" in="SourceGraphic" in2="effect0_dropShadow" result="shape" />
    </filter>
    <filter filterUnits="userSpaceOnUse" color-interpolation-filters="sRGB" id="filter_2">
      <feFlood flood-opacity="0" result="BackgroundImageFix" />
      <feColorMatrix in="SourceAlpha" type="matrix" values="0 0 0 0 0 0 0 0 0 0 0 0 0 0 0 0 0 0 127 0" />
      <feOffset dx="0" dy="1" />
      <feGaussianBlur stdDeviation="1.5" />
      <feColorMatrix type="matrix" values="0 0 0 0 0.7294118 0 0 0 0 0.07058824 0 0 0 0 0.07058824 0 0 0 0.4039216 0" />
      <feBlend mode="normal" in2="BackgroundImageFix" result="effect0_dropShadow" />
      <feBlend mode="normal" in="SourceGraphic" in2="effect0_dropShadow" result="shape" />
    </filter>
    <path d="M0 0L24 0L24 20L0 20L0 0Z" id="path_1" />
    <path d="M0 0L18 0L18 7L0 7L0 0Z" transform="translate(3 10)" id="path_2" />
    <clipPath id="clip_1">
      <use xlink:href="#path_1" />
    </clipPath>
    <clipPath id="clip_2">
      <use xlink:href="#path_2" />
    </clipPath>
  </defs>
  <g id="духовка" transform="translate(0.5 0.5)">
    <g id="духовка">
      <g id="Rectangle">
        <g clip-path="url(#clip_1)">
          <use xlink:href="#path_1" fill="none" stroke="#000000" stroke-width="2" />
        </g>
      </g>
      <path d="M0 0L24 0L24 1L21 1L21 3L3 3L3 1L0 1L0 0ZM4 2L20 2L20 1L4 1L4 2Z" transform="translate(0 6)" id="Combined-Shape" fill="#000000" fill-rule="evenodd" stroke="none" />
      <g filter="url(#filter_1)">
        <g id="Rectangle">
          <use stroke="none" fill="#D0021B" fill-opacity="0.149019614" xlink:href="#path_2" />
          <g clip-path="url(#clip_2)">
            <use xlink:href="#path_2" fill="none" stroke="#BA1212" stroke-width="2" />
          </g>
        </g>
      </g>
      <g filter="url(#filter_2)">
        <path d="M0 0L12 0L12 2L0 2L0 0Z" transform="translate(6 2)" id="Rectangle" fill="#BA1212" stroke="none" />
      </g>
      <path d="M1 2C1.55228 2 2 1.55228 2 1C2 0.447715 1.55228 0 1 0C0.447715 0 0 0.447715 0 1C0 1.55228 0.447715 2 1 2Z" transform="translate(19 2)" id="Oval" fill="#000000" stroke="none" />
      <path d="M1 2C1.55228 2 2 1.55228 2 1C2 0.447715 1.55228 0 1 0C0.447715 0 0 0.447715 0 1C0 1.55228 0.447715 2 1 2Z" transform="translate(3 2)" id="Oval" fill="#000000" stroke="none" />
    </g>
  </g>
</svg>

<svg width="25" height="21" viewBox="0 0 25 21" xmlns:xlink="http://www.w3.org/1999/xlink" xmlns="http://www.w3.org/2000/svg"><defs><clipPath id="clip_1"><use xlink:href="#path_1"/></clipPath><clipPath id="clip_2"><use xlink:href="#path_2"/></clipPath><filter filterUnits="userSpaceOnUse" color-interpolation-filters="sRGB" id="filter_1"><feFlood flood-opacity="0" result="BackgroundImageFix"/><feColorMatrix in="SourceAlpha" values="0 0 0 0 0 0 0 0 0 0 0 0 0 0 0 0 0 0 127 0"/><feOffset dy="1"/><feGaussianBlur stdDeviation="1.5"/><feColorMatrix values="0 0 0 0 0.7294118 0 0 0 0 0.07058824 0 0 0 0 0.07058824 0 0 0 0.2509804 0"/><feBlend in2="BackgroundImageFix" result="effect0_dropShadow"/><feBlend in="SourceGraphic" in2="effect0_dropShadow" result="shape"/></filter><filter filterUnits="userSpaceOnUse" color-interpolation-filters="sRGB" id="filter_2"><feFlood flood-opacity="0" result="BackgroundImageFix"/><feColorMatrix in="SourceAlpha" values="0 0 0 0 0 0 0 0 0 0 0 0 0 0 0 0 0 0 127 0"/><feOffset dy="1"/><feGaussianBlur stdDeviation="1.5"/><feColorMatrix values="0 0 0 0 0.7294118 0 0 0 0 0.07058824 0 0 0 0 0.07058824 0 0 0 0.4039216 0"/><feBlend in2="BackgroundImageFix" result="effect0_dropShadow"/><feBlend in="SourceGraphic" in2="effect0_dropShadow" result="shape"/></filter><path d="M0 0h24v20H0V0z" id="path_1"/><path d="M0 0h18v7H0V0z" transform="translate(3 10)" id="path_2"/></defs><g id="духовка" transform="translate(.5 .5)"><g id="духовка"><g clip-path="url(#clip_1)" id="Rectangle"><use xlink:href="#path_1" fill="none" stroke="#000" stroke-width="2"/></g><path d="M0 0h24v1h-3v2H3V1H0V0zm4 2h16V1H4v1z" transform="translate(0 6)" id="Combined-Shape" fill="#000" fill-rule="evenodd" stroke="none"/><g filter="url(#filter_1)"><g id="Rectangle"><use fill="#D0021B" fill-opacity=".149" xlink:href="#path_2"/><g clip-path="url(#clip_2)"><use xlink:href="#path_2" fill="none" stroke="#BA1212" stroke-width="2"/></g></g></g><g filter="url(#filter_2)"><path d="M0 0h12v2H0V0z" transform="translate(6 2)" id="Rectangle" fill="#BA1212" stroke="none"/></g><path d="M1 2a1 1 0 100-2 1 1 0 000 2z" transform="translate(19 2)" id="Oval" fill="#000" stroke="none"/><path d="M1 2a1 1 0 100-2 1 1 0 000 2z" transform="translate(3 2)" id="Oval" fill="#000" stroke="none"/></g></g></svg>
